public/images/file-maker/feature7.svg

<svg width="64" height="68" viewBox="0 0 64 68" fill="none" xmlns="http://www.w3.org/2000/svg">
<path fill-rule="evenodd" clip-rule="evenodd" d="M30.75 30V31.4347C29.7675 31.7994 28.986 32.5809 28.6214 33.5634H18.2961C16.007 33.5634 14.1445 35.4258 14.1445 37.715V41.828H4.328C1.9415 41.828 0 43.7695 0 46.1559V62.9933C0 65.3796 1.9415 67.3213 4.328 67.3213H26.461C28.8474 67.3213 30.7889 65.3798 30.7889 62.9933V46.1559C30.7889 43.7695 28.8474 41.8279 26.461 41.8279H16.6445V37.7149C16.6445 36.8041 17.3854 36.0633 18.2961 36.0633H28.6214C29.1306 37.4354 30.4529 38.4157 32 38.4157C33.5471 38.4157 34.8694 37.4353 35.3786 36.0633H45.7039C46.6146 36.0633 47.3555 36.8041 47.3555 37.7149V41.8279H37.539C35.1526 41.8279 33.2111 43.7694 33.2111 46.1559V62.9933C33.2111 65.3796 35.1526 67.3213 37.539 67.3213H59.672C62.0584 67.3213 64 65.3798 64 62.9933V46.1559C64 43.7695 62.0585 41.828 59.672 41.828H49.8555V37.715C49.8555 35.4259 47.9931 33.5634 45.7039 33.5634H35.3786C35.014 32.5809 34.2325 31.7994 33.25 31.4347V30H30.75ZM26.461 64.8213C27.4689 64.8213 28.2889 64.0011 28.2889 62.9933V50.6706H2.5V62.9933C2.5 64.0013 3.32013 64.8213 4.328 64.8213H26.461ZM28.2889 46.156C28.2889 45.148 27.4689 44.328 26.461 44.328H4.328C3.32 44.328 2.5 45.1481 2.5 46.156V48.1707H28.2889V46.156ZM30.8975 34.8134C30.8975 35.4213 31.392 35.9159 32 35.9159C32.608 35.9159 33.1025 35.4214 33.1025 34.8134C33.1025 34.2054 32.6079 33.7108 32 33.7108C31.3921 33.7108 30.8975 34.2055 30.8975 34.8134ZM59.672 64.8213C60.68 64.8213 61.5 64.0011 61.5 62.9933V50.6706H35.7111V62.9933C35.7111 64.0013 36.5311 64.8213 37.539 64.8213H59.672ZM35.7111 48.1706H61.5V46.1559C61.5 45.1479 60.6799 44.3279 59.672 44.3279H37.539C36.5311 44.3279 35.7111 45.148 35.7111 46.1559V48.1706Z" fill="#7F8284"/>
<path fill-rule="evenodd" clip-rule="evenodd" d="M23.4361 0.63533C23.7049 0.0971867 24.3432 -0.142232 24.8993 0.0864191L41.5474 6.93109C42.0815 7.15067 42.3696 7.73299 42.2202 8.2911L40.1739 15.9355L47.2944 18.9117C47.6999 19.0813 47.9732 19.4676 47.9981 19.9067C48.0231 20.3458 47.7954 20.7606 47.4116 20.975L36.8908 26.8542C36.5446 27.0476 36.1232 27.0487 35.7761 26.8569L21.653 19.0546C21.3914 18.9101 21.1964 18.6693 21.1094 18.3833L17.0498 5.0315C16.9185 4.59972 17.052 4.13102 17.391 3.83338C17.7301 3.53574 18.2118 3.46431 18.6225 3.65077L24.3107 6.23314C24.3874 5.97886 24.5511 5.75537 24.7786 5.60552C25.1012 5.393 25.5091 5.35707 25.8638 5.5099L30.8384 7.65278C31.2596 7.83424 31.5326 8.24915 31.5326 8.70808V9.29262L34.0688 10.4677C34.4043 10.6232 34.6445 10.9308 34.7141 11.2942L36.5171 20.7154L39.7408 8.67255L25.013 2.61741L24.3418 3.96082L22.2879 2.93319L23.4361 0.63533ZM34.7429 23.6614L32.5695 12.3053L29.902 11.0694C29.4961 10.8813 29.2363 10.4744 29.2363 10.0268V9.46435L26.5183 8.29353C26.445 8.56477 26.2737 8.80356 26.0318 8.95955C25.7038 9.17108 25.2909 9.2014 24.9355 9.04007L19.9855 6.79283L23.1707 17.2683L34.7429 23.6614ZM38.1429 23.5226L44.2299 20.1211L39.5743 18.1752L38.1429 23.5226Z" fill="#FF6B00"/>
</svg>

<svg xmlns="http://www.w3.org/2000/svg" width="64" height="68" fill="none" fill-rule="evenodd" xmlns:v="https://vecta.io/nano"><path d="M30.75 30v1.435a3.62 3.62 0 0 0-2.129 2.129H18.296a4.16 4.16 0 0 0-4.152 4.152v4.113H4.328C1.942 41.828 0 43.77 0 46.156v16.837c0 2.386 1.942 4.328 4.328 4.328h22.133c2.386 0 4.328-1.941 4.328-4.328V46.156c0-2.386-1.942-4.328-4.328-4.328h-9.816v-4.113c0-.911.741-1.652 1.652-1.652h10.325a3.61 3.61 0 0 0 6.757 0h10.325c.911 0 1.652.741 1.652 1.652v4.113h-9.816c-2.386 0-4.328 1.941-4.328 4.328v16.837c0 2.386 1.941 4.328 4.328 4.328h22.133c2.386 0 4.328-1.941 4.328-4.328V46.156c0-2.386-1.941-4.328-4.328-4.328h-9.816v-4.113a4.16 4.16 0 0 0-4.152-4.152H35.379a3.62 3.62 0 0 0-2.129-2.129V30h-2.5zm-4.289 34.821a1.83 1.83 0 0 0 1.828-1.828V50.671H2.5v12.323a1.83 1.83 0 0 0 1.828 1.828h22.133zm1.828-18.665a1.83 1.83 0 0 0-1.828-1.828H4.328A1.83 1.83 0 0 0 2.5 46.156v2.015h25.789v-2.015zm2.609-11.343c0 .608.494 1.102 1.102 1.102s1.102-.495 1.102-1.102-.495-1.103-1.102-1.103-1.102.495-1.102 1.103zm28.774 30.008a1.83 1.83 0 0 0 1.828-1.828V50.671H35.711v12.323a1.83 1.83 0 0 0 1.828 1.828h22.133zM35.711 48.171H61.5v-2.015a1.83 1.83 0 0 0-1.828-1.828H37.539a1.83 1.83 0 0 0-1.828 1.828v2.015z" fill="#7f8284"/><path d="M23.436.635a1.15 1.15 0 0 1 1.463-.549l16.648 6.845a1.15 1.15 0 0 1 .673 1.36l-2.046 7.644 7.121 2.976a1.15 1.15 0 0 1 .117 2.063l-10.521 5.879c-.346.193-.768.195-1.115.003l-14.123-7.802a1.15 1.15 0 0 1-.544-.671L17.05 5.032a1.15 1.15 0 0 1 1.573-1.381l5.688 2.582a1.15 1.15 0 0 1 .468-.628c.323-.213.73-.248 1.085-.096l4.975 2.143a1.15 1.15 0 0 1 .694 1.055v.585l2.536 1.175a1.15 1.15 0 0 1 .645.826l1.803 9.421 3.224-12.043-14.728-6.055-.671 1.343-2.054-1.028L23.436.635zm11.307 23.026l-2.173-11.356-2.667-1.236a1.15 1.15 0 0 1-.666-1.043v-.562l-2.718-1.171a1.15 1.15 0 0 1-.486.666c-.328.212-.741.242-1.096.081l-4.95-2.247 3.185 10.475 11.572 6.393zm3.4-.139l6.087-3.402-4.656-1.946-1.431 5.347z" fill="#ff6b00"/></svg>
